packages/kaspersky-hexa-ui-icons/src/iconsSVGs/24/LinkActiv.svg

<svg width="24" height="24" viewBox="0 0 24 24" fill="none" xmlns="http://www.w3.org/2000/svg">
<path d="M14.5 4.8999C14.5 2.69076 16.2909 0.899902 18.5 0.899902C20.7091 0.899902 22.5 2.69076 22.5 4.8999C22.5 7.10904 20.7091 8.8999 18.5 8.8999C17.3942 8.8999 16.3931 8.45115 15.6691 7.72582L10.368 10.8769C10.4541 11.2034 10.5 11.5463 10.5 11.8999C10.5 12.277 10.4478 12.642 10.3503 12.9879L15.6586 16.0845C16.3835 15.353 17.3888 14.8999 18.5 14.8999C20.7091 14.8999 22.5 16.6908 22.5 18.8999C22.5 21.109 20.7091 22.8999 18.5 22.8999C16.2909 22.8999 14.5 21.109 14.5 18.8999C14.5 18.5442 14.5464 18.1992 14.6336 17.8709L9.33525 14.7215C8.61086 15.4494 7.60804 15.8999 6.5 15.8999C4.29086 15.8999 2.5 14.109 2.5 11.8999C2.5 9.69076 4.29086 7.8999 6.5 7.8999C7.61117 7.8999 8.61652 8.35299 9.34138 9.08448L14.6498 5.98793C14.5522 5.642 14.5 5.27705 14.5 4.8999Z" fill="black"/>
</svg>

<svg xmlns="http://www.w3.org/2000/svg" width="24" height="24" fill="none" viewBox="0 0 24 24"><path fill="#000" d="M14.5 4.8999c0-2.2091 1.7909-4 4-4s4 1.7909 4 4-1.7909 4-4 4c-1.1058 0-2.1069-.4488-2.8309-1.174l-5.3011 3.151c.0861.3265.132.6694.132 1.023 0 .3771-.0522.7421-.1497 1.088l5.3083 3.0966c.7249-.7315 1.7302-1.1846 2.8414-1.1846 2.2091 0 4 1.7909 4 4s-1.7909 4-4 4-4-1.7909-4-4c0-.3557.0464-.7007.1336-1.029l-5.2983-3.1494c-.7244.7279-1.7273 1.1784-2.8353 1.1784-2.2091 0-4-1.7909-4-4s1.7909-4 4-4c1.1112 0 2.1165.453 2.8414 1.1846l5.3084-3.0966A4 4 0 0 1 14.5 4.9"/></svg>
